X: 1177
T: An Coileach Ag Fogairt An Lae
R: jig
M: 6/8
K: Gmajor
BA|:G3 BAG|B3 B2 A|G2 B BAG|A^GA ABA|
G2 B BAG|dcd efg|dBG ABA|1 G2 E D2 E:|2 G3 G2||
|:d|gdd gdd|cBc cdc|gdd gdB|ABA ABd|
gag gdB|c2 d efg|dBG ABA|1 G3 G2:|2 G2 E D2 E||

